icons/heptagon.svg

<svg width="24" height="24" viewBox="0 0 24 24" fill="none" xmlns="http://www.w3.org/2000/svg">
<path fill-rule="evenodd" clip-rule="evenodd" d="M13.5799 2.37644L18.7855 4.8791C19.7653 5.36904 20.5266 6.24292 20.7813 7.38352L22.0821 12.9873C22.329 14.0981 22.0849 15.2385 21.3282 16.1279L17.7475 20.6037C17.0816 21.5218 15.9421 22 14.85 22H9.15002C8.01 22 7.0087 21.4876 6.28053 20.6381L6.27226 20.6284L2.67183 16.1279C1.91507 15.2385 1.67103 14.0981 1.91788 12.9873L1.91941 12.9804L3.21868 7.38365C3.47337 6.24299 4.23466 5.36914 5.21457 4.87918L5.22497 4.87398L10.4201 2.37644C11.4281 1.87452 12.5719 1.87452 13.5799 2.37644ZM12.9146 3.72082C12.3257 3.42639 11.6743 3.42639 11.0854 3.72082L11.075 3.72602L5.88053 6.22326C5.26406 6.53309 4.82789 7.05687 4.68215 7.7127L4.68061 7.7196L3.38145 13.3159C3.23043 13.9997 3.38373 14.6536 3.81944 15.1619L3.82771 15.1715L7.42723 19.671C7.89784 20.2155 8.49368 20.5 9.15002 20.5H14.85C15.5508 20.5 16.2038 20.1844 16.5397 19.7141L16.5516 19.6974L20.1723 15.1715L20.1806 15.1619C20.6162 14.6536 20.7695 13.9997 20.6186 13.316L19.3178 7.71271C19.1721 7.05688 18.7359 6.53309 18.1195 6.22326L12.9146 3.72082Z" fill="black"/>
</svg>

<svg xmlns="http://www.w3.org/2000/svg" fill="none" viewBox="0 0 24 24">
  <path fill="#000" fill-rule="evenodd" d="m13.58 2.376 5.205 2.503c.98.49 1.742 1.364 1.996 2.505l1.301 5.603c.247 1.111.003 2.252-.754 3.14l-3.58 4.477C17.081 21.522 15.941 22 14.85 22h-5.7c-1.14 0-2.141-.512-2.87-1.362l-.008-.01-3.6-4.5c-.757-.89-1.001-2.03-.754-3.14l.001-.008 1.3-5.596c.254-1.141 1.016-2.015 1.996-2.505l.01-.005 5.195-2.498a3.504 3.504 0 0 1 3.16 0Zm-.665 1.345a2.004 2.004 0 0 0-1.83 0l-.01.005-5.194 2.497c-.617.31-1.053.834-1.199 1.49l-.001.007-1.3 5.596c-.15.684.003 1.338.438 1.846l.009.01 3.6 4.499c.47.544 1.066.829 1.722.829h5.7c.7 0 1.354-.316 1.69-.786l.012-.017 3.62-4.525.009-.01c.435-.508.588-1.162.438-1.846l-1.301-5.603c-.146-.656-.582-1.18-1.199-1.49l-5.204-2.502Z" clip-rule="evenodd"/>
</svg>
